X:1
T:Australia, SMD
T:Australia, SMD
T:Robert Lowry, 1873
T:Public Domain Courtesy of the Cyber Hymnal™
C:Robert Lowry, 1873
Z:Public Domain
Z:Courtesy of the Cyber Hymnal™
%%score ( 1 2 ) ( 3 4 )
L:1/8
Q:1/4=107
M:6/8
K:Eb
V:1 treble 
V:2 treble 
V:3 bass 
V:4 bass 
V:1
 [EB] | [EB]2 [EG] [EG]2 [DF] | E3- E2 [DF] | [EG]2 [FA] [GB]2 [Ge] | [Fd]3- [Fd]2 [Dc] | %5
 [EB]2 [E=A] [Ec]2 [EB] | [EG]2 [DF] E2 [DF] | [EG]2 [EB] [EG]2 [DF] | E3- E2 [DF] | %9
 [DF]2 [DF] [FB]2 [Fc] | [Fd]3- [Fd]2 [Ge] | [Ec]2 [EG] [EG]2 [E=A] | [DB]3- [DB]2 [AB] | %13
 [GB]2 [^F=A] [_Ac]2 [GB] | [EG]2 [DF] E2 [DF] | [EG]2 [EB] [EG]2 [DF] | E3- E2 |] %17
V:2
 x | x6 | E3- E2 x | x6 | x6 | x6 | x3 E2 x | x6 | E3- E2 x | x6 | x6 | x6 | x6 | x6 | x3 E2 x | %15
 x6 | E3- E2 |] %17
V:3
 [E,G,] | [E,G,]2 [E,B,] [B,,B,]2 [B,,A,] | [E,G,]3- [E,G,]2 [B,,B,] | %3
 [E,B,]2 [E,B,] [E,B,]2 [E,B,] | [B,,B,]3- [B,,B,]2 [B,,A,] | [E,G,]2 [E,^F,] [E,A,]2 [E,G,] | %6
 [B,,B,]2 [B,,A,] [C,G,]2 [C,B,] | [E,B,]2 [G,,B,] [B,,B,]2 [B,,A,] | [E,G,]3- [E,G,]2 [B,,B,] | %9
 [B,,B,]2 [B,,B,] [D,B,]2 [F,=A,] | B,3- B,2 [E,B,] | [F,B,]2 [F,=A,] [F,C]2 [F,C] | %12
 [B,,B,]3- [B,,B,]2 [B,,D] | [E,E]2 [E,E] [E,E]2 [E,E] | [E,B,]2 [B,,A,] [C,G,]2 [B,,B,] | %15
 [E,B,]2 [G,,B,] [B,,B,]2 [B,,A,] | [E,G,]3- [E,G,]2 |] %17
V:4
 x | x6 | x6 | x6 | x6 | x6 | x6 | x6 | x6 | x6 | B,3- B,2 x | x6 | x6 | x6 | x6 | x6 | x5 |] %17

